frontend/public/svg/files/file-list.svg

<svg width="142" height="175" viewBox="0 0 142 175" fill="none" xmlns="http://www.w3.org/2000/svg">
<g clip-path="url(#clip0)">
<path d="M141.351 100.752C141.467 114.45 141.65 128.147 141.669 141.844C141.678 147.79 141.218 153.736 141.203 159.683C141.183 168.052 134.91 173.275 127.204 173.446C108.907 173.849 90.6042 174.202 72.3048 174.147C56.8101 174.101 41.3145 173.532 25.8249 173.027C21.5651 172.81 17.3211 172.349 13.1137 171.648C8.15767 170.914 3.21285 165.042 2.88403 159.658C2.63068 155.517 2.42001 151.369 2.36357 147.222C2.06646 125.325 1.79998 103.427 1.56414 81.53C1.32654 60.979 1.09638 40.4288 0.873668 19.8789C0.860115 15.8187 1.88753 11.8232 3.85795 8.27316C4.7366 6.49785 6.09501 5.00421 7.77916 3.96145C9.46332 2.91869 11.4059 2.36835 13.3867 2.37316C19.3325 2.15854 25.2901 2.13927 31.2247 1.754C52.784 0.353374 74.3408 1.42573 95.8995 1.59376C100.342 1.62854 103.675 3.12075 106.933 6.20095C113.782 12.6757 121.097 18.6561 128.181 24.8854C130.878 27.2574 133.366 29.8736 136.126 32.1622C138.902 34.4633 139.782 37.4129 139.841 40.8036C140.047 52.4793 140.261 64.1551 140.481 75.8304C140.643 84.1396 140.837 92.4482 141.016 100.757L141.351 100.752ZM93.8426 9.9755C91.842 9.8206 90.1815 9.60375 88.5184 9.57618C74.3743 9.3399 60.2297 9.12502 46.0847 8.93074C39.6906 8.84279 33.2953 8.79895 26.9006 8.76219C23.6517 8.74185 20.3951 8.63959 17.1547 8.81155C12.6444 9.05111 11.2562 10.3608 10.4436 14.816C9.63594 19.0102 9.44652 23.2996 9.88114 27.5486C10.148 30.0033 10.282 32.471 10.2822 34.9401C10.3505 74.5696 10.4016 114.199 10.4357 153.829C10.4146 154.615 10.4456 155.401 10.5284 156.183C11.2241 161.302 13.9164 164.678 19.7237 164.908C41.2765 165.761 62.828 165.764 84.3867 165.409C95.3882 165.227 106.391 165.128 117.393 165C120.084 164.969 122.781 165.071 125.466 164.942C130.146 164.717 132.485 162.362 132.437 157.758C132.385 152.825 132.017 147.897 131.934 142.964C131.837 137.24 132.031 131.51 131.868 125.789C131.462 111.428 130.768 97.0741 130.49 82.7114C130.269 71.1527 130.494 59.5853 130.51 48.022C130.51 47.1615 130.416 46.3004 130.365 45.4255C129.977 45.3428 129.584 45.2873 129.188 45.2594C122.342 45.3973 115.496 45.6129 108.65 45.653C106.519 45.6688 104.394 45.4222 102.324 44.9178C98.1101 43.8729 96.7895 42.2385 96.3439 37.8949C95.9435 33.989 95.6816 30.0695 95.3318 26.159C94.8671 20.9201 94.3703 15.6778 93.8426 9.9755ZM105.945 37.5469L126.08 36.2848L102.527 14.8917C103.73 22.8668 104.81 30.0226 105.945 37.5469Z" fill="black"/>
<path d="M44.7184 38.061C49.5412 38.061 54.3665 38.0359 59.1873 38.0694C62.5924 38.093 63.8236 39.0542 64.5646 42.4055C64.8834 43.9413 65.0573 45.5033 65.0838 47.0716C65.1868 50.7215 63.7055 52.5804 60.1528 53.0267C57.0398 53.4205 53.8965 53.669 50.7605 53.7484C45.9345 53.8725 41.1033 53.7538 36.2759 53.8247C34.0338 53.8105 31.7935 53.9611 29.5733 54.2747C24.358 55.1279 21.7485 50.8146 21.8666 47.1857C21.9654 45.3923 22.1692 43.6065 22.477 41.837C22.5616 40.9302 22.9458 40.0775 23.5691 39.4135C24.1924 38.7494 25.0192 38.3118 25.9189 38.1701C27.6725 37.7943 29.4554 37.5712 31.2476 37.5041C35.7356 37.4115 40.227 37.474 44.7176 37.474L44.7184 38.061ZM55.4482 45.2763C55.4744 45.0138 55.5001 44.7511 55.5255 44.4886C46.5101 44.8102 37.494 43.1301 28.3079 44.3738V47.0409C29.3488 46.9811 30.2219 46.9694 31.0863 46.8736C33.1951 46.6393 35.2939 46.2422 37.408 46.1345C42.2229 45.8904 47.0443 45.7953 51.8619 45.6096C53.0597 45.5584 54.253 45.3892 55.4482 45.2763Z" fill="black"/>
<path d="M85.9469 138.509C77.874 138.509 69.801 138.53 61.732 138.492C59.8321 138.518 57.9331 138.394 56.0526 138.121C54.0265 137.789 52.9679 136.585 52.9732 135.134C52.9797 133.734 54.1447 132.378 56.058 132.059C58.5937 131.592 61.1603 131.313 63.737 131.225C79.314 130.942 94.8915 130.723 110.468 130.569C112.146 130.559 113.819 130.755 115.449 131.151C117.5 131.643 118.415 132.94 118.356 134.705C118.29 136.547 117.043 137.798 114.867 138.135C114.2 138.223 113.528 138.259 112.855 138.243C103.885 138.249 94.9158 138.251 85.9456 138.247L85.9469 138.509Z" fill="black"/>
<path d="M84.0222 110.559C75.05 110.559 66.0779 110.573 57.1057 110.544C55.762 110.551 54.4205 110.433 53.0988 110.19C51.962 109.97 50.992 109.321 50.8732 107.996C50.742 106.523 51.6706 105.698 52.8802 105.227C53.6226 104.976 54.3982 104.837 55.1814 104.814C61.1055 104.391 67.0263 103.793 72.9583 103.633C85.7378 103.285 98.5226 103.155 111.305 102.972C112.423 102.956 113.538 103.089 114.621 103.366C116.874 103.948 117.851 105.198 117.757 107.1C117.67 108.856 116.68 110.016 114.596 110.458C113.28 110.719 111.941 110.846 110.6 110.835C101.739 110.866 92.8788 110.851 84.0182 110.851L84.0222 110.559Z" fill="black"/>
<path d="M84.98 83.641C75.3266 83.641 65.673 83.641 56.0191 83.641C55.3457 83.641 54.6656 83.7519 54.0008 83.6876C52.8397 83.5753 51.7443 83.2728 51.5507 81.8538C51.4397 81.2906 51.5434 80.7058 51.8412 80.2149C52.1391 79.7239 52.6097 79.3623 53.1607 79.2002C54.9487 78.5629 56.8035 78.1317 58.6891 77.9131C73.1206 76.7159 87.6034 76.2421 102.083 76.4954C105.9 76.5565 109.718 76.5361 113.535 76.5617C114.321 76.542 115.107 76.5643 115.89 76.63C118.533 76.9338 120.261 78.5333 120.171 80.5306C120.084 82.4379 118.453 83.8582 115.945 84.1096C114.937 84.1916 113.925 84.2054 112.916 84.1509C106.634 83.9317 100.353 83.6574 94.0709 83.4749C91.0432 83.3863 88.011 83.4592 84.98 83.4592V83.641Z" fill="black"/>
<path d="M31.573 148.326C30.4989 148.29 29.4272 148.201 28.3621 148.058C21.1424 146.775 18.0419 140.343 21.5021 133.881C25.0194 127.31 30.2786 125.48 37.1728 128.437C41.733 130.391 44.0545 134.459 43.3063 139.183C42.453 144.582 39.2369 147.724 34.0518 148.21C33.2754 148.281 32.4918 148.284 31.573 148.326ZM27.6309 139.518C29.9938 141.059 32.4878 140.914 34.9649 140.129C36.2775 135.377 34.1727 133.458 28.771 134.205C27.5633 135.694 26.8237 137.33 27.6349 139.521L27.6309 139.518Z" fill="black"/>
<path d="M42.2971 80.5967C42.2971 80.7089 42.301 80.8211 42.2971 80.9334C42.1357 84.9265 41.2818 88.6788 37.1823 90.4004C32.6096 92.3202 28.088 91.9343 24.2203 88.6322C20.848 85.7529 19.8635 82.0518 21.0409 77.6858C22.582 71.9757 24.7447 70.1373 30.9182 69.7592C36.3061 69.4311 40.1208 71.5615 41.6632 75.9721C42.0671 77.4771 42.3497 79.0116 42.5084 80.5612L42.2971 80.5967ZM27.443 76.9514C26.0115 79.6273 26.0088 81.1782 27.3773 82.8637C29.0103 84.8734 31.3567 85.3171 34.6574 84.242C36.1401 81.3856 36.341 79.07 34.8872 77.7501C32.634 75.7004 30.0152 75.9642 27.443 76.9514Z" fill="black"/>
<path d="M31.3259 118.542C29.7257 118.289 28.6132 118.172 27.5276 117.932C22.6897 116.861 19.6817 113.439 19.7827 109.179C19.9074 104.041 22.8459 100.536 27.7672 99.4317C32.2736 98.4203 36.1894 99.3759 39.4829 102.629C44.2223 107.31 42.8696 114.663 36.7065 117.221C34.8905 117.975 32.8453 118.183 31.3259 118.542ZM27.2986 105.257C26.534 107.01 25.6577 108.85 27.3891 110.193C28.4117 110.987 30.0861 111.14 31.4828 111.196C32.9142 111.253 34.4487 110.983 34.9711 109.208C33.8376 105.693 32.9254 105.194 27.2986 105.26V105.257Z" fill="black"/>
</g>
<defs>
<clipPath id="clip0">
<rect width="141.113" height="173.93" fill="white" transform="translate(0.855469 0.574219)"/>
</clipPath>
</defs>
</svg>

<svg xmlns="http://www.w3.org/2000/svg" width="142" height="175" fill="none" viewBox="0 0 142 175"><g fill="#000" clip-path="url(#a)"><path d="M141.351 100.752c.116 13.698.299 27.395.318 41.092.009 5.946-.451 11.892-.466 17.839-.02 8.369-6.293 13.592-13.999 13.763-18.297.403-36.6.756-54.9.701-15.494-.046-30.99-.615-46.48-1.12a112 112 0 0 1-12.71-1.379c-4.956-.734-9.901-6.606-10.23-11.99-.253-4.141-.464-8.289-.52-12.436q-.447-32.846-.8-65.692-.356-30.826-.69-61.651A23.75 23.75 0 0 1 3.858 8.273a10.6 10.6 0 0 1 9.529-5.9c5.945-.214 11.903-.234 17.838-.619 21.559-1.4 43.116-.328 64.674-.16 4.443.035 7.776 1.527 11.034 4.607 6.849 6.475 14.164 12.455 21.248 18.684 2.697 2.372 5.185 4.989 7.945 7.277 2.776 2.301 3.656 5.25 3.715 8.642q.31 17.513.64 35.026c.162 8.31.356 16.618.535 24.927zM93.843 9.976c-2.001-.155-3.662-.372-5.325-.4q-21.216-.354-42.433-.645c-6.394-.088-12.79-.132-19.184-.169-3.25-.02-6.506-.122-9.746.05-4.51.24-5.899 1.549-6.711 6.004a43.8 43.8 0 0 0-.563 12.733c.267 2.454.401 4.922.401 7.391q.103 59.445.154 118.889-.031 1.18.092 2.354c.696 5.119 3.388 8.495 9.196 8.725 21.553.853 43.104.856 64.663.501 11.001-.182 22.004-.281 33.006-.409 2.691-.031 5.388.071 8.073-.058 4.68-.225 7.019-2.58 6.971-7.184-.052-4.933-.42-9.861-.503-14.794-.097-5.724.097-11.454-.066-17.175-.406-14.361-1.1-28.715-1.378-43.078-.221-11.558.004-23.126.02-34.689 0-.86-.094-1.722-.145-2.596a8.5 8.5 0 0 0-1.177-.167c-6.846.138-13.692.354-20.538.394a26 26 0 0 1-6.326-.735c-4.214-1.045-5.534-2.68-5.98-7.023-.4-3.906-.662-7.826-1.012-11.736-.465-5.239-.962-10.481-1.49-16.183m12.102 27.57 20.135-1.261-23.553-21.393z"/><path d="M44.718 38.061c4.823 0 9.648-.025 14.47.008 3.404.024 4.636.985 5.377 4.337.318 1.535.492 3.097.519 4.666.103 3.65-1.379 5.508-4.931 5.955a94 94 0 0 1-9.392.721c-4.827.125-9.658.006-14.485.077a46 46 0 0 0-6.703.45c-5.215.853-7.824-3.46-7.706-7.09.098-1.793.302-3.579.61-5.348a4.1 4.1 0 0 1 3.442-3.667 31 31 0 0 1 5.329-.666c4.488-.093 8.979-.03 13.47-.03zm10.73 7.215.078-.787c-9.016.321-18.032-1.359-27.218-.115v2.667c1.04-.06 1.914-.072 2.778-.167 2.11-.235 4.208-.632 6.322-.74 4.815-.244 9.636-.339 14.454-.524 1.198-.052 2.391-.22 3.586-.334m30.499 93.233c-8.073 0-16.146.021-24.215-.017-1.9.026-3.799-.098-5.68-.371-2.026-.332-3.084-1.536-3.079-2.987.007-1.4 1.172-2.756 3.085-3.075a52 52 0 0 1 7.679-.834q23.365-.425 46.731-.656c1.678-.01 3.351.186 4.981.582 2.051.492 2.966 1.789 2.907 3.554-.066 1.842-1.313 3.093-3.489 3.43a13 13 0 0 1-2.012.108q-13.455.01-26.91.004zm-1.925-27.95c-8.972 0-17.944.014-26.916-.015a21.5 21.5 0 0 1-4.007-.354c-1.137-.22-2.107-.869-2.226-2.194-.131-1.473.798-2.298 2.007-2.769a8 8 0 0 1 2.301-.413c5.925-.423 11.845-1.021 17.777-1.181 12.78-.348 25.565-.478 38.347-.661a12.7 12.7 0 0 1 3.316.394c2.253.582 3.23 1.832 3.136 3.734-.087 1.756-1.077 2.916-3.161 3.358a19.7 19.7 0 0 1-3.996.377c-8.861.031-17.721.016-26.582.016zm.958-26.918H56.02c-.674 0-1.354.11-2.02.047-1.16-.113-2.256-.415-2.45-1.834a2.3 2.3 0 0 1 1.61-2.654 25 25 0 0 1 5.53-1.287 433 433 0 0 1 43.393-1.418c3.817.061 7.635.041 11.452.067q1.18-.03 2.355.068c2.643.304 4.371 1.903 4.281 3.9-.087 1.908-1.718 3.328-4.226 3.58q-1.514.123-3.029.04c-6.282-.218-12.563-.493-18.845-.675-3.028-.089-6.06-.016-9.091-.016zm-53.407 64.685a32 32 0 0 1-3.21-.268c-7.22-1.283-10.321-7.715-6.86-14.177 3.516-6.571 8.776-8.401 15.67-5.444 4.56 1.954 6.881 6.022 6.133 10.746-.853 5.399-4.07 8.541-9.254 9.027-.777.071-1.56.074-2.479.116m-3.942-8.808c2.363 1.541 4.857 1.396 7.334.611 1.313-4.752-.792-6.671-6.194-5.924-1.208 1.489-1.947 3.125-1.136 5.316zm14.666-58.921c0 .112.004.224 0 .336-.161 3.993-1.015 7.746-5.115 9.467-4.572 1.92-9.094 1.534-12.962-1.768-3.372-2.88-4.357-6.58-3.18-10.946 1.542-5.71 3.705-7.549 9.878-7.927 5.388-.328 9.203 1.802 10.745 6.213a29 29 0 0 1 .845 4.59zM27.443 76.95c-1.431 2.676-1.434 4.227-.066 5.913 1.633 2.01 3.98 2.453 7.28 1.378 1.483-2.856 1.684-5.172.23-6.492-2.253-2.05-4.872-1.786-7.444-.799m3.883 41.592c-1.6-.253-2.713-.37-3.798-.61-4.838-1.071-7.846-4.493-7.745-8.753.124-5.138 3.063-8.643 7.984-9.747 4.507-1.012 8.422-.056 11.716 3.197 4.74 4.681 3.387 12.034-2.776 14.592-1.816.754-3.862.962-5.381 1.321m-4.027-13.285c-.765 1.753-1.641 3.593.09 4.936 1.023.794 2.697.947 4.094 1.003 1.431.057 2.966-.213 3.488-1.988-1.133-3.515-2.046-4.014-7.672-3.948z"/></g><defs><clipPath id="a"><path fill="#fff" d="M.855.574h141.113v173.93H.855z"/></clipPath></defs></svg>
